app/img/who-suits/2.svg

<svg width="70" height="68" viewBox="0 0 70 68" fill="none" xmlns="http://www.w3.org/2000/svg">
<path fill-rule="evenodd" clip-rule="evenodd" d="M69.9037 16.9774C69.8534 16.8681 69.7846 16.7683 69.7002 16.6827L67.8091 14.7131C67.5382 14.4426 67.1402 14.3438 66.7743 14.4562L63.3632 15.4909L59.3669 11.252L68.3372 6.25661C68.8599 6.01594 69.0884 5.39704 68.8476 4.87449C68.7973 4.76513 68.7284 4.6654 68.644 4.57976L66.1249 2.06066C65.8503 1.7968 65.4536 1.70367 65.0901 1.81803L53.7221 5.25771L49.897 1.19717C48.9222 0.0699981 47.3353 -0.306618 45.9578 0.26232H45.8936C44.8551 0.689783 44.0303 1.51456 43.6029 2.55306C43.4951 2.82424 43.4186 3.10666 43.3745 3.39514L42.9392 3.24528C42.3756 3.06402 41.7717 3.37391 41.5904 3.9375C41.4092 4.50108 41.7191 5.10499 42.2826 5.28625C42.8321 5.46466 43.3816 5.66447 43.9311 5.87143C44.0965 6.13012 44.2904 6.36954 44.5092 6.58505L48.5412 10.4101L47.3851 14.228C36.078 6.16241 20.3734 8.79016 12.3078 20.0972C4.24226 31.4043 6.87001 47.1087 18.1771 55.1743C29.4841 63.2399 45.1887 60.6121 53.2543 49.3051C59.6862 40.2882 59.4618 28.125 52.7016 19.3517L54.5285 16.0547L58.7674 20.051L57.7469 23.4265C57.624 23.7974 57.7207 24.2059 57.9967 24.4826C57.9967 24.4826 60.0876 26.5521 60.1376 26.6235C60.6319 26.91 61.2651 26.7416 61.5518 26.2472C61.5563 26.2396 61.5607 26.2317 61.5648 26.2239L64.3551 21.1072L69.3933 18.3597C69.916 18.1189 70.1446 17.5 69.9037 16.9774ZM16.6206 18.3881C20.9229 14.0878 26.7584 11.6745 32.8414 11.68C33.3172 11.68 33.7928 11.6943 34.2686 11.7228C38.3149 15.4551 37.1231 18.8591 34.4114 21.9277C32.811 23.6249 31.0942 25.2082 29.2732 26.6662C26.64 28.9069 24.1851 30.9979 23.2574 33.0888C22.1584 35.5722 22.9648 37.8201 27.4035 39.7826C29.6229 40.7674 30.8289 41.531 31.2999 42.109C31.3069 42.1174 31.3137 42.1233 31.3206 42.1285C31.306 42.1329 31.2912 42.1378 31.2714 42.1447C30.1967 42.554 29.0527 42.7502 27.9031 42.7228C22.5349 42.9506 18.7081 39.5275 15.7352 36.8683L15.7143 36.8496L15.7034 36.8399C13.5674 34.9388 11.7934 33.3599 9.94824 33.3457C10.2537 27.7082 12.6299 22.3817 16.6206 18.3881ZM55.863 34.6445H55.8701C55.8669 44.5907 49.473 53.4086 40.0205 56.5029C39.755 54.8303 40.0643 53.1171 40.8982 51.6431C42.029 49.8271 43.4798 48.2314 45.18 46.9331C51.7667 41.4382 52.1378 38.3696 52.4233 36.0075C52.6017 34.516 52.7373 33.4028 55.6846 31.7829C55.8028 32.7322 55.8624 33.6879 55.863 34.6445ZM54.5356 26.9231C54.8546 27.8215 55.1167 28.7392 55.3206 29.6705C50.8319 31.9541 50.6321 33.5812 50.3609 35.8006L50.3605 35.8041C50.1179 37.8018 49.8008 40.4135 43.8526 45.3774C41.9464 46.8359 40.3255 48.6334 39.0713 50.6797C37.9779 52.6125 37.5989 54.8683 38.0009 57.0524C25.6214 59.8823 13.2919 52.1408 10.4621 39.7616C10.1384 38.3457 9.94967 36.9024 9.89828 35.4509C10.9896 35.4509 12.3913 36.6987 14.1032 38.2226L14.3085 38.4053C17.5769 41.324 21.7588 45.0492 27.9887 44.828C29.4566 44.8533 30.914 44.5764 32.2705 44.0144C32.8423 43.7616 33.2751 43.2715 33.4551 42.6728C33.6071 42.005 33.4142 41.3055 32.9413 40.8102C32.2705 39.9896 30.8004 39.019 28.2742 37.8915C25.2555 36.557 24.599 35.2582 25.1913 33.9309C25.8387 32.416 27.7899 30.7131 29.9687 28.8117C30.1916 28.6171 30.4169 28.4205 30.6434 28.2219C32.5452 26.6849 34.3361 25.0157 36.0027 23.2265C38.9857 19.8296 40.52 16.1259 37.4871 12.0725C40.8577 12.7615 44.0291 14.2034 46.7642 16.29L45.1229 21.7064C45.0017 22.0775 45.0981 22.4852 45.3727 22.7626C45.3727 22.7626 48.0345 25.403 48.1201 25.453C48.6145 25.7395 49.2476 25.5711 49.5343 25.0767C49.5388 25.0691 49.5431 25.0612 49.5474 25.0534L51.624 21.2997C52.8498 23.0306 53.8297 24.9231 54.5356 26.9231ZM64.1053 18.9518L63.1848 19.4086C62.9787 19.5108 62.8128 19.679 62.7138 19.8867L62.257 20.8144L60.4801 24.0257L59.9592 23.4548L60.9939 20.0366C61.1145 19.636 60.9822 19.2025 60.6585 18.9376L55.028 13.6353C54.6204 13.2348 53.9652 13.2407 53.5647 13.6484C53.5551 13.6582 53.5458 13.668 53.5365 13.6781C53.4652 13.7566 48.3984 22.8839 48.3984 22.8839L47.2923 21.7778L50.7463 10.3955C50.8701 9.9928 50.7373 9.55535 50.4109 9.28934L45.9293 5.07181C45.4333 4.65166 45.2685 3.95748 45.5225 3.3591C45.7502 2.84065 46.1658 2.42764 46.6857 2.20303H46.7214C47.3125 1.97485 47.9831 2.14683 48.3913 2.6312L52.673 7.1556C52.9419 7.44426 53.3515 7.55505 53.7292 7.44105L65.1472 3.99423L66.2534 5.10035L57.1903 10.0815C56.6886 10.3551 56.5038 10.9838 56.7776 11.4853L56.7907 11.5087C56.8335 11.5872 62.2927 17.3961 62.2927 17.3961C62.5632 17.6823 62.9726 17.7902 63.3489 17.6745L66.7814 16.6397L67.3167 17.1749L64.1053 18.9518ZM34.832 1.73902C35.8311 1.79611 36.8373 1.90316 37.8221 2.05302C38.4134 2.09637 38.8574 2.6109 38.8141 3.20196C38.7707 3.7932 38.2564 4.23725 37.6651 4.1939H37.501C36.5804 4.05117 35.6456 3.95127 34.7036 3.8799C34.1123 3.8444 33.6618 3.33648 33.6974 2.74524C33.7329 2.154 34.2408 1.70352 34.832 1.73902ZM29.5937 1.87469C30.185 1.8176 30.7106 2.25041 30.7677 2.84165C30.8247 3.43289 30.3919 3.95848 29.8007 4.01557C28.873 4.10834 27.9381 4.24393 27.0175 4.42233H26.8106L26.8177 4.45088C26.2265 4.50601 25.7025 4.07159 25.6474 3.48035C25.5922 2.88911 26.0267 2.36513 26.6179 2.31C27.6027 2.11732 28.6018 1.97459 29.5937 1.87469ZM3.49686 19.8224C3.76287 19.2943 4.40674 19.0818 4.93482 19.3478C5.46291 19.614 5.67539 20.2577 5.40938 20.7858C4.97407 21.6136 4.60298 22.4771 4.26044 23.3477L4.2583 23.3532C4.04065 23.9029 3.41854 24.172 2.86887 23.9543C2.32259 23.7359 2.0548 23.1176 2.26942 22.5699C2.63337 21.635 3.04728 20.7144 3.49686 19.8224ZM2.14668 26.6871C1.58863 26.4921 0.97812 26.7867 0.783122 27.3447C0.75422 27.4275 0.735487 27.5137 0.727637 27.6009C0.513549 28.5786 0.349415 29.5705 0.228099 30.5625C0.15174 31.1427 0.555296 31.6766 1.1344 31.7614H1.26999C1.81182 31.7617 2.26836 31.3573 2.3333 30.8194C2.44748 29.8917 2.60448 28.9568 2.80429 28.0505C2.99929 27.4925 2.70474 26.8819 2.14668 26.6871ZM13.3509 58.4226C13.3286 58.4026 13.3055 58.3835 13.2816 58.3653C12.568 57.773 11.8544 57.1379 11.1978 56.4814C10.7807 56.0687 10.1092 56.0687 9.69209 56.4814C9.27462 56.8994 9.27462 57.5762 9.69209 57.9943C10.4057 58.7079 11.1193 59.3716 11.9186 60.0138C12.358 60.4093 13.0349 60.3737 13.4304 59.9342C13.8258 59.4948 13.7903 58.8181 13.3509 58.4226ZM6.47993 50.4085C6.95806 51.2077 7.47901 51.9927 8.0285 52.7492C8.34482 53.2144 8.24687 53.8451 7.8046 54.1926C7.33967 54.5578 6.66672 54.4772 6.30153 54.0123C5.70922 53.2059 5.15259 52.3638 4.63877 51.5075L4.63754 51.5055L4.63699 51.5046C4.33477 50.9965 4.50176 50.3396 5.00986 50.0374L5.01194 50.036L5.01272 50.0356C5.52082 49.7334 6.17771 49.9004 6.47993 50.4085ZM4.29613 45.9985C3.95359 45.135 3.6396 44.243 3.37555 43.3438C3.21089 42.7761 2.61697 42.4493 2.04928 42.6139C2.03929 42.6168 2.02948 42.6198 2.01966 42.623C1.45786 42.7947 1.1394 43.3871 1.30604 43.9504C1.59149 44.9066 1.91976 45.8629 2.29084 46.8049C2.51349 47.3586 3.14291 47.627 3.69669 47.4043C4.25046 47.1817 4.51879 46.5522 4.29613 45.9985ZM2.37032 38.551L2.36997 38.5482C2.25579 37.6205 2.17729 36.6785 2.14161 35.7508C2.12002 35.1595 1.62316 34.698 1.03192 34.7196C0.440678 34.7412 -0.0208598 35.238 0.000727416 35.8293C0.000727416 36.8283 0.114908 37.8346 0.24336 38.8265C0.316507 39.3453 0.754495 39.7348 1.27812 39.7471H1.44225C2.02885 39.673 2.44436 39.1375 2.37032 38.551ZM9.58565 12.8717C9.14035 12.4776 8.45973 12.5192 8.06563 12.9645C7.40909 13.7138 6.7811 14.5059 6.19593 15.3195C5.8491 15.7981 5.95597 16.4675 6.43481 16.8143C6.61661 16.946 6.83498 17.0172 7.05942 17.0179V17.0322C7.40392 17.0334 7.72791 16.8687 7.93004 16.5897C8.47953 15.8333 9.06471 15.0911 9.67843 14.3917C10.0725 13.9464 10.031 13.266 9.58565 12.8717ZM15.6628 7.77134C15.3279 7.31658 14.6974 7.20008 14.2221 7.50534C13.4015 8.0691 12.5951 8.68282 11.8243 9.31795C11.369 9.69635 11.3068 10.372 11.6852 10.8273C12.0636 11.2826 12.7392 11.3448 13.1945 10.9664C13.9081 10.367 14.6646 9.79608 15.4353 9.26799C15.9115 8.9176 16.0132 8.24751 15.6628 7.77134ZM19.2491 6.90536C19.2507 6.90552 19.2522 6.90566 19.2538 6.90566H19.2324C19.2345 6.90566 19.2367 6.9054 19.2388 6.9052L19.24 6.90513C18.8273 6.90177 18.4524 6.66191 18.278 6.28698C18.0286 5.75104 18.2609 5.11431 18.797 4.8649C19.6962 4.41531 20.631 4.04423 21.5659 3.70169C21.6135 3.68081 21.6626 3.66333 21.7127 3.64959C22.2829 3.49295 22.872 3.82836 23.0284 4.39837C23.1851 4.96837 22.8499 5.55747 22.2795 5.71411C21.4017 6.03525 20.5311 6.39919 19.689 6.79883C19.5508 6.8658 19.3998 6.90163 19.2464 6.90509L19.2486 6.9053L19.2491 6.90536ZM34.833 65.3162C35.4242 65.2788 35.9337 65.7276 35.9712 66.3189C36.0087 66.9101 35.5598 67.4198 34.9686 67.4571C34.2977 67.5213 33.5841 67.5213 32.8705 67.5213H31.9642C31.373 67.5056 30.9066 67.0136 30.9223 66.4224C30.938 65.8311 31.43 65.3648 32.0213 65.3805C32.9561 65.409 33.8981 65.3876 34.833 65.3162ZM63.9882 41.5203C63.4148 41.3745 62.8316 41.7212 62.6859 42.2946C62.4575 43.2009 62.1792 44.1 61.8652 44.9778C61.6791 45.5291 61.9674 46.1282 62.5146 46.3266C63.071 46.5262 63.684 46.2368 63.8837 45.6804L63.8848 45.6772C64.2202 44.7352 64.5127 43.7718 64.7625 42.8227C64.9084 42.2493 64.5616 41.6662 63.9882 41.5203ZM64.734 26.3236C64.9838 27.287 65.1908 28.279 65.3549 29.2638C65.4493 29.8472 65.0532 30.3965 64.47 30.4912H64.2916C63.7789 30.4859 63.3419 30.1178 63.2497 29.6135C63.0927 28.6929 62.9 27.7652 62.6645 26.866C62.5427 26.319 62.8633 25.7706 63.3998 25.6086C63.9657 25.4375 64.5631 25.7577 64.734 26.3236ZM61.3018 49.017C61.3082 49.0203 61.3146 49.0237 61.321 49.0272L61.3318 49.0332L61.3492 49.0433C61.859 49.3426 62.0295 49.9986 61.73 50.5085C61.2447 51.3791 60.7166 52.2426 60.16 53.0704C59.8191 53.5552 59.1497 53.6719 58.6649 53.3309C58.1802 52.99 58.0635 52.3206 58.4045 51.8359C58.9326 51.0652 59.425 50.2588 59.8745 49.4381C60.1589 48.9359 60.7903 48.7496 61.3018 49.017ZM64.7333 33.4171C64.1423 33.4091 63.6565 33.8817 63.6483 34.4727C63.6482 34.4819 63.6481 34.491 63.6482 34.5001L63.6486 34.5161V34.6374C63.6486 35.5722 63.6058 36.5142 63.5202 37.4491C63.4666 38.0378 63.9004 38.5586 64.4891 38.6121L64.4907 38.6123H64.5906C65.1553 38.6176 65.6268 38.1834 65.6682 37.6204C65.761 36.6284 65.8038 35.6222 65.8038 34.6231V34.4804C65.7999 33.892 65.3217 33.4171 64.7333 33.4171ZM24.4065 64.2171C25.2985 64.4883 26.2191 64.6881 27.1468 64.8451C27.7381 64.9004 28.1725 65.4244 28.1173 66.0156C28.0622 66.6069 27.5382 67.0413 26.947 66.9862H26.7472C25.7624 66.7792 24.7776 66.5437 23.8213 66.2726C23.779 66.2631 23.7371 66.2513 23.6963 66.2369C23.1386 66.0406 22.8453 65.4296 23.0415 64.8719C23.2377 64.3142 23.8488 64.0211 24.4065 64.2171ZM43.7105 64.5201C43.5169 63.9945 42.9508 63.7069 42.4122 63.8607V63.8892C41.5273 64.1818 40.6139 64.4316 39.7076 64.6028C39.1302 64.7329 38.7675 65.3065 38.8976 65.8838C39.0277 66.4611 39.6012 66.8238 40.1786 66.6938C41.1491 66.4725 42.1268 66.2014 43.0759 65.8945C43.6307 65.69 43.9148 65.0747 43.7105 64.5201ZM17.3134 61.1771C18.1198 61.6338 18.9547 62.0906 19.8039 62.5116C20.34 62.7639 20.57 63.4029 20.3177 63.9389C20.0655 64.4748 19.4264 64.7049 18.8905 64.4527C17.9842 64.0031 17.0921 63.5321 16.2287 63.0254C15.7182 62.7259 15.5473 62.0693 15.8469 61.5589C16.1464 61.0485 16.803 60.8776 17.3134 61.1771ZM56.8007 55.6259C56.3718 55.2343 55.7087 55.2561 55.3066 55.6753H55.3137C54.6715 56.3889 53.9935 57.0169 53.3013 57.6378C52.8599 58.0319 52.8215 58.7093 53.2156 59.1507C53.6097 59.5921 54.2872 59.6304 54.7285 59.2363C55.4422 58.5726 56.1986 57.8662 56.8694 57.1383C57.2682 56.7015 57.2373 56.0245 56.8007 55.6259ZM49.4273 60.5956C49.9349 60.2924 50.5922 60.4577 50.8955 60.9651C51.1989 61.4725 51.0334 62.1298 50.526 62.4333C49.6839 62.9685 48.8061 63.4752 47.9212 63.9319C47.3951 64.2018 46.7496 63.9941 46.4797 63.468C46.2098 62.9419 46.4174 62.2964 46.9436 62.0265C47.7714 61.5698 48.592 61.0988 49.377 60.5992V60.6278C49.3935 60.6165 49.4102 60.6058 49.4273 60.5956Z" fill="#49B3F7"/>
</svg>

<svg width="70" height="68" fill="none" xmlns="http://www.w3.org/2000/svg"><path fill-rule="evenodd" clip-rule="evenodd" d="M69.904 16.977a1.033 1.033 0 00-.204-.294l-1.89-1.97c-.272-.27-.67-.37-1.036-.257l-3.41 1.035-3.997-4.239 8.97-4.995a1.042 1.042 0 00.307-1.677l-2.52-2.52a1.042 1.042 0 00-1.034-.242l-11.368 3.44-3.825-4.06a3.461 3.461 0 00-3.94-.936h-.063a4.21 4.21 0 00-2.291 2.291 3.857 3.857 0 00-.229.842l-.435-.15a1.072 1.072 0 00-.656 2.041c.55.179 1.099.378 1.648.585.166.26.36.499.578.714l4.032 3.825-1.156 3.818c-11.307-8.066-27.012-5.438-35.077 5.87-8.066 11.306-5.438 27.01 5.87 35.076 11.306 8.066 27.01 5.438 35.076-5.869a25.148 25.148 0 00-.552-29.953l1.827-3.297 4.238 3.996-1.02 3.376c-.123.37-.026.779.25 1.056 0 0 2.09 2.07 2.14 2.14a1.035 1.035 0 001.428-.4l2.79-5.116 5.038-2.747c.523-.241.752-.86.51-1.383zM16.62 18.388a22.916 22.916 0 0116.22-6.708c.476 0 .952.014 1.428.043 4.046 3.732 2.854 7.136.142 10.205a50.108 50.108 0 01-5.138 4.738c-2.633 2.24-5.088 4.332-6.016 6.423-1.099 2.483-.292 4.731 4.146 6.694 2.22.984 3.426 1.748 3.897 2.326a.12.12 0 00.02.02l-.049.016a8.87 8.87 0 01-3.368.578c-5.368.228-9.195-3.195-12.168-5.855l-.02-.018-.012-.01c-2.136-1.901-3.91-3.48-5.755-3.494a22.915 22.915 0 016.673-14.958zm39.242 16.256h.007a23.007 23.007 0 01-15.85 21.859 7.486 7.486 0 01.878-4.86 17.694 17.694 0 014.282-4.71c6.587-5.495 6.958-8.563 7.243-10.925.179-1.492.314-2.605 3.262-4.225.118.95.177 1.905.178 2.861zm-1.327-7.72c.319.898.58 1.815.785 2.747-4.49 2.283-4.689 3.91-4.96 6.13v.003c-.243 1.998-.56 4.61-6.508 9.573a19.52 19.52 0 00-4.782 5.303A9.464 9.464 0 0038 57.052c-12.38 2.83-24.71-4.911-27.539-17.29a22.992 22.992 0 01-.564-4.311c1.092 0 2.493 1.248 4.205 2.772l.206.182c3.268 2.919 7.45 6.644 13.68 6.423a10.705 10.705 0 004.281-.814 2.14 2.14 0 001.185-1.341 2.041 2.041 0 00-.514-1.863c-.67-.82-2.14-1.791-4.667-2.919-3.018-1.334-3.675-2.633-3.083-3.96.648-1.515 2.599-3.218 4.778-5.12.223-.194.448-.39.674-.59a51.948 51.948 0 005.36-4.994c2.983-3.397 4.517-7.101 1.484-11.155 3.37.69 6.542 2.131 9.277 4.218l-1.641 5.416c-.121.372-.025.78.25 1.057 0 0 2.662 2.64 2.747 2.69a1.035 1.035 0 001.414-.376c.005-.008.01-.016.013-.024l2.077-3.753a22.943 22.943 0 012.912 5.623zm9.57-7.972l-.921.457c-.206.102-.372.27-.471.478l-.457.927-1.777 3.212-.52-.571 1.034-3.418a1.037 1.037 0 00-.336-1.1l-5.63-5.302a1.035 1.035 0 00-1.492.043c-.07.079-5.138 9.206-5.138 9.206l-1.106-1.106 3.454-11.382a1.035 1.035 0 00-.335-1.107l-4.482-4.217a1.484 1.484 0 01-.407-1.713 2.241 2.241 0 011.164-1.156h.035a1.485 1.485 0 011.67.428l4.282 4.525c.269.288.678.399 1.056.285l11.418-3.447L66.253 5.1l-9.063 4.982a1.034 1.034 0 00-.412 1.403l.013.024c.043.078 5.502 5.887 5.502 5.887.27.286.68.394 1.056.278l3.432-1.034.536.535-3.212 1.777zM34.831 1.739c1 .057 2.005.164 2.99.314a1.073 1.073 0 01-.157 2.14H37.5a36.047 36.047 0 00-2.797-.313 1.072 1.072 0 11.128-2.141zm-5.238.136a1.075 1.075 0 11.207 2.14c-.928.093-1.863.229-2.784.407h-.206l.007.029a1.075 1.075 0 11-.2-2.141 32.495 32.495 0 012.976-.435zM3.497 19.822a1.07 1.07 0 011.912.964 25.741 25.741 0 00-1.149 2.562l-.002.005a1.07 1.07 0 01-1.39.601 1.07 1.07 0 01-.599-1.384c.364-.935.778-1.856 1.228-2.748zm-1.35 6.865a1.07 1.07 0 00-1.42.914 32.34 32.34 0 00-.499 2.962 1.07 1.07 0 00.906 1.198h.136a1.07 1.07 0 001.063-.942c.114-.927.271-1.862.471-2.768a1.07 1.07 0 00-.657-1.364zM13.35 58.423a30.656 30.656 0 01-2.153-1.941 1.07 1.07 0 00-1.506 0 1.07 1.07 0 000 1.512 27.288 27.288 0 002.227 2.02 1.07 1.07 0 001.432-1.591zm-6.87-8.015c.478.8.999 1.585 1.548 2.341a1.07 1.07 0 01-1.726 1.263 32.418 32.418 0 01-1.663-2.505l-.001-.002h-.001a1.07 1.07 0 01.373-1.468l.002-.001a1.07 1.07 0 011.468.372zm-2.184-4.41a30.668 30.668 0 01-.92-2.654 1.07 1.07 0 00-1.356-.721 1.07 1.07 0 00-.714 1.327c.285.957.614 1.913.985 2.855a1.08 1.08 0 002.005-.806zM2.37 38.551v-.003a33.576 33.576 0 01-.228-2.797A1.071 1.071 0 100 35.829c0 1 .114 2.006.242 2.998a1.07 1.07 0 001.035.92h.164a1.07 1.07 0 00.928-1.196zm7.216-25.68a1.077 1.077 0 00-1.52.093 31.453 31.453 0 00-1.87 2.355 1.07 1.07 0 00.863 1.699v.014a1.07 1.07 0 00.871-.442 30.679 30.679 0 011.748-2.198 1.077 1.077 0 00-.092-1.52zm6.077-5.1a1.07 1.07 0 00-1.44-.266 34.647 34.647 0 00-2.399 1.813 1.072 1.072 0 101.37 1.648 28.97 28.97 0 012.241-1.698 1.07 1.07 0 00.228-1.497zm3.586-.866h.005-.022.008a1.07 1.07 0 01-.443-2.04c.9-.45 1.834-.82 2.769-1.163a1.07 1.07 0 11.713 2.012c-.877.321-1.748.685-2.59 1.085a1.07 1.07 0 01-.443.106h.003zm15.584 58.411a1.073 1.073 0 01.136 2.141c-.671.064-1.385.064-2.099.064h-.906a1.07 1.07 0 11.057-2.14c.935.028 1.877.007 2.812-.065zM63.988 41.52a1.071 1.071 0 00-1.302.775 29.114 29.114 0 01-.82 2.683 1.07 1.07 0 00.649 1.349 1.07 1.07 0 001.369-.647v-.003c.336-.942.629-1.905.879-2.854a1.071 1.071 0 00-.775-1.303zm.746-15.196c.25.963.457 1.955.62 2.94a1.07 1.07 0 01-.884 1.227h-.178a1.07 1.07 0 01-1.042-.878c-.157-.92-.35-1.848-.586-2.747a1.07 1.07 0 012.07-.542zm-3.432 22.693a.892.892 0 01.019.01l.01.006.018.01c.51.3.68.956.381 1.465a36.205 36.205 0 01-1.57 2.562 1.073 1.073 0 11-1.755-1.234c.528-.77 1.02-1.577 1.47-2.398a1.07 1.07 0 011.427-.421zm3.431-15.6a1.07 1.07 0 00-1.085 1.056v.164a30.9 30.9 0 01-.128 2.812 1.07 1.07 0 00.97 1.163h.1a1.07 1.07 0 001.078-.992 32.2 32.2 0 00.136-2.997v-.143a1.07 1.07 0 00-1.07-1.063zm-40.327 30.8a22.21 22.21 0 002.74.628 1.075 1.075 0 01-.199 2.141h-.2a43.812 43.812 0 01-3.05-.75 1.07 1.07 0 01.71-2.019zm19.305.303a1.07 1.07 0 00-1.299-.66v.03c-.885.292-1.798.542-2.704.713a1.072 1.072 0 00.47 2.09c.971-.22 1.949-.492 2.898-.799a1.07 1.07 0 00.635-1.374zm-26.398-3.343a51.5 51.5 0 002.49 1.335 1.073 1.073 0 11-.913 1.94 42.556 42.556 0 01-2.661-1.427 1.071 1.071 0 111.084-1.848zm39.488-5.551a1.07 1.07 0 00-1.494.05h.007c-.642.713-1.32 1.34-2.013 1.962a1.072 1.072 0 001.427 1.598c.714-.663 1.47-1.37 2.141-2.098a1.07 1.07 0 00-.068-1.512zm-7.374 4.97a1.07 1.07 0 011.099 1.837 33.694 33.694 0 01-2.605 1.499 1.07 1.07 0 01-.977-1.906 45.236 45.236 0 002.433-1.427v.029a.951.951 0 01.05-.032z" fill="#49B3F7"/></svg>
